_includes/icons/color-collaboration-female-male.svg

<svg fill="#666" height="50" viewBox="0 0 48 48" width="50" xmlns="http://www.w3.org/2000/svg"><path d="m25 22h13l6 6v-17c0-2.199-1.801-4-4-4h-15c-2.199 0-4 1.801-4 4v7c0 2.199 1.801 4 4 4z" fill="#1565c0"/><path d="m23 19h-13l-6 6v-17c0-2.199 1.801-4 4-4h15c2.199 0 4 1.801 4 4v7c0 2.199-1.801 4-4 4z" fill="#2196f3"/><path d="m44 42s-2.199-4-8-4-8 4-8 4v2h16z" fill="#64b5f6"/><g fill="#ff9800"><path d="m38.001 36h-4v3s.328 1 1.959 1 2.041-1 2.041-1z"/><circle cx="39.5" cy="33.5" r="1.5"/><circle cx="32.5" cy="33.5" r="1.5"/></g><path d="m40 30.216c0-2.206-1.794-2.216-4-2.216s-4 .01-4 2.216v3.784c0 2.206 1.794 4 4 4s4-1.794 4-4c0-.347 0-3.436 0-3.784z" fill="#ffb74d"/><path d="m35.781 26c-2.437.219-4.781 1.93-4.781 5.574v1.426l1 1v-3l6.31-2.201 1.69 2.201v3l1-1v-1.203c0-2.414-.135-4.205-3-4.797l-.485-1z" fill="#424242"/><path d="m8 30.95h8v8.1h-8z" fill="#bf360c"/><path d="m20 42s-2.199-4-8-4-8 4-8 4v2h16z" fill="#7cb342"/><path d="m14.001 36h-4v3s.328 1 1.959 1 2.041-1 2.041-1z" fill="#ff9800"/><path d="m16 30.216c0-2.206-1.794-2.216-4-2.216s-4 .01-4 2.216v3.784c0 2.206 1.794 4 4 4s4-1.794 4-4c0-.347 0-3.436 0-3.784z" fill="#ffb74d"/><path d="m12 26c-4 0-7 1.356-7 10.313l3 2.43v-5.743l5.469-3 2.531 3v5.742l3-2.43c0-1.8 0-9.313-5-9.313l-1-1h-1z" fill="#ff5722"/></svg>

<svg xmlns="http://www.w3.org/2000/svg" viewBox="0 0 48 48" width="50" height="50" fill="#666"><path d="M25,22h13l6,6V11c0-2.199-1.801-4-4-4H25c-2.199,0-4,1.801-4,4v7C21,20.199,22.801,22,25,22z" fill="#1565c0"/><path d="M23,19H10l-6,6V8c0-2.199,1.801-4,4-4h15c2.199,0,4,1.801,4,4v7C27,17.199,25.199,19,23,19z" fill="#2196f3"/><path d="M44,42c0,0-2.199-4-8-4s-8,4-8,4v2h16V42z" fill="#64b5f6"/><path d="M38.001,36h-4v3c0,0,0.328,1,1.959,1s2.041-1,2.041-1V36z" fill="#ff9800"/><circle cx="39.5" cy="33.5" r="1.5" fill="#ff9800"/><circle cx="32.5" cy="33.5" r="1.5" fill="#ff9800"/><path d="M40,30.216C40,28.01,38.206,28,36,28s-4,0.01-4,2.216c0,0.347,0,3.436,0,3.784c0,2.206,1.794,4,4,4 s4-1.794,4-4C40,33.653,40,30.564,40,30.216z" fill="#ffb74d"/><path d="M35.781,26C33.344,26.219,31,27.93,31,31.574V33l1,1v-3l6.31-2.201L40,31v3l1-1v-1.203 c0-2.414-0.135-4.205-3-4.797l-0.485-1H35.781z" fill="#424242"/><path d="M8,30.95h8v8.1H8V30.95z" fill="#bf360c"/><path d="M20,42c0,0-2.199-4-8-4s-8,4-8,4v2h16V42z" fill="#7cb342"/><g><path d="M14.001,36h-4v3c0,0,0.328,1,1.959,1s2.041-1,2.041-1V36z" fill="#ff9800"/><path d="M16,30.216C16,28.01,14.206,28,12,28s-4,0.01-4,2.216C8,30.563,8,33.652,8,34c0,2.206,1.794,4,4,4 s4-1.794,4-4C16,33.653,16,30.564,16,30.216z" fill="#ffb74d"/></g><path d="M12,26c-4,0-7,1.356-7,10.313l3,2.43V33l5.469-3L16,33v5.742l3-2.43c0-1.8,0-9.313-5-9.313l-1-1H12z" fill="#ff5722"/></svg>
